src/images/svg/symbols/eur-sek.svg

<svg width="32" height="32" viewBox="0 0 32 32" fill="none" xmlns="http://www.w3.org/2000/svg">
<path d="M22 4H2C0.89543 4 0 4.89543 0 6V18C0 19.1046 0.89543 20 2 20H22C23.1046 20 24 19.1046 24 18V6C24 4.89543 23.1046 4 22 4Z" fill="#0D47A1"/>
<path d="M12.1683 16.6927L12.3342 17.198L12.8586 17.2022C12.9265 17.2027 12.9546 17.2907 12.9 17.3317L12.4781 17.6482L12.6363 18.1561C12.6568 18.2218 12.5831 18.2763 12.5278 18.2361L12.1012 17.9263L11.6746 18.2361C11.6194 18.2762 11.5457 18.2218 11.5661 18.1561L11.7243 17.6482L11.3024 17.3317C11.2478 17.2907 11.2759 17.2027 11.3439 17.2022L11.8683 17.198L12.0342 16.6927C12.0556 16.6272 12.1468 16.6272 12.1683 16.6927ZM9.58417 15.8453L9.75011 16.3507L10.2745 16.3548C10.3424 16.3554 10.3705 16.4434 10.3159 16.4844L9.89407 16.8008L10.0522 17.3088C10.0727 17.3745 9.99902 17.4289 9.94375 17.3888L9.51714 17.079L9.09053 17.3888C9.03532 17.4289 8.96158 17.3745 8.98207 17.3088L9.14022 16.8008L8.71835 16.4844C8.66374 16.4434 8.69186 16.3554 8.75978 16.3548L9.28418 16.3508L9.45011 15.8454C9.47158 15.7798 9.56275 15.7798 9.58417 15.8453ZM14.7906 15.8453C14.8121 15.7798 14.9032 15.7798 14.9247 15.8454L15.0906 16.3508L15.615 16.3548C15.6829 16.3554 15.7111 16.4434 15.6565 16.4844L15.2346 16.8008L15.3927 17.3088C15.4132 17.3745 15.3395 17.4289 15.2843 17.3888L14.8577 17.079L14.4311 17.3888C14.3758 17.4289 14.3021 17.3745 14.3226 17.3088L14.4807 16.8008L14.0589 16.4844C14.0043 16.4434 14.0324 16.3554 14.1003 16.3548L14.6247 16.3507L14.7906 15.8453ZM16.8795 13.8595L17.0454 14.3648L17.5698 14.369C17.6377 14.3695 17.6658 14.4575 17.6112 14.4985L17.1894 14.815L17.3475 15.3229C17.368 15.3887 17.2943 15.4431 17.2391 15.4029L16.8124 15.0931L16.3858 15.4029C16.3306 15.443 16.2569 15.3887 16.2774 15.3229L16.4355 14.815L16.0136 14.4985C15.959 14.4575 15.9872 14.3695 16.0551 14.369L16.5795 14.3648L16.7454 13.8595C16.7669 13.7941 16.858 13.7941 16.8795 13.8595ZM7.6093 13.8281L7.62944 13.8595L7.79538 14.3648L8.31977 14.369C8.37411 14.3694 8.40297 14.4258 8.38439 14.4694L8.36121 14.4985L7.93933 14.815L8.09749 15.3229C8.11388 15.3755 8.06996 15.4208 8.02347 15.4163L7.98902 15.4029L7.56241 15.0931L7.1358 15.4029C7.09159 15.4351 7.03559 15.4067 7.02544 15.3603L7.02733 15.3229L7.18549 14.815L6.76361 14.4985C6.71993 14.4657 6.72919 14.4028 6.76942 14.3787L6.80505 14.369L7.32944 14.3648L7.49538 13.8595C7.51255 13.8072 7.57428 13.7967 7.6093 13.8281ZM17.5088 11.2673L17.6747 11.7727L18.1991 11.7768C18.267 11.7774 18.2951 11.8654 18.2405 11.9064L17.8187 12.2228L17.9768 12.7308C17.9973 12.7965 17.9236 12.8509 17.8683 12.8108L17.4417 12.501L17.0151 12.8108C16.9599 12.8509 16.8862 12.7965 16.9067 12.7308L17.0648 12.2228L16.6429 11.9064C16.5883 11.8654 16.6165 11.7774 16.6844 11.7768L17.2088 11.7727L17.3747 11.2673C17.3961 11.2019 17.4873 11.2019 17.5088 11.2673ZM6.82769 11.2673L6.99363 11.7727L7.51802 11.7768C7.58594 11.7774 7.61407 11.8654 7.55946 11.9064L7.13758 12.2228L7.29574 12.7308C7.31622 12.7965 7.24253 12.8509 7.18727 12.8108L6.76066 12.501L6.33405 12.8108C6.27883 12.8509 6.2051 12.7965 6.22558 12.7308L6.38374 12.2228L5.96186 11.9064C5.90725 11.8654 5.93538 11.7774 6.0033 11.7768L6.52769 11.7727L6.69363 11.2673C6.7151 11.2019 6.80627 11.2019 6.82769 11.2673ZM7.62944 8.43418L7.79538 8.93956L8.31977 8.94371C8.38769 8.94423 8.41582 9.03223 8.36121 9.07323L7.93933 9.38971L8.09749 9.89761C8.11797 9.96333 8.04428 10.0178 7.98902 9.97766L7.56241 9.66785L7.1358 9.97766C7.08058 10.0178 7.00685 9.96337 7.02733 9.89761L7.18549 9.38971L6.76361 9.07323C6.709 9.03223 6.73713 8.94423 6.80505 8.94371L7.32944 8.93956L7.49538 8.43418C7.51685 8.36875 7.60793 8.36875 7.62944 8.43418ZM16.8593 8.40278L16.8795 8.43418L17.0454 8.93956L17.5698 8.94371C17.6241 8.94413 17.653 9.00053 17.6344 9.04407L17.6112 9.07323L17.1894 9.38971L17.3475 9.89761C17.3639 9.95022 17.32 9.99555 17.2735 9.99104L17.2391 9.97766L16.8124 9.66785L16.3858 9.97766C16.3416 10.0098 16.2856 9.98133 16.2755 9.93502L16.2774 9.89761L16.4355 9.38971L16.0136 9.07323C15.97 9.04043 15.9792 8.97755 16.0194 8.95344L16.0551 8.94371L16.5795 8.93956L16.7454 8.43418C16.7626 8.38184 16.8243 8.37137 16.8593 8.40278ZM14.9247 6.44837L15.0907 6.95375L15.6151 6.9579C15.683 6.95842 15.7111 7.04642 15.6565 7.08742L15.2346 7.4039L15.3928 7.9118C15.4133 7.97752 15.3396 8.03199 15.2843 7.99185L14.8577 7.68204L14.4311 7.99185C14.3758 8.03194 14.3021 7.97756 14.3226 7.9118L14.4807 7.4039L14.0589 7.08742C14.0043 7.04642 14.0324 6.95842 14.1003 6.9579L14.6247 6.95375L14.7906 6.44837C14.8121 6.38299 14.9032 6.38299 14.9247 6.44837ZM9.56403 6.41699L9.58417 6.44837L9.75011 6.95375L10.2745 6.9579C10.3288 6.95832 10.3577 7.01472 10.3391 7.05826L10.3159 7.08742L9.89407 7.4039L10.0522 7.9118C10.0686 7.96441 10.0247 8.00974 9.9782 8.00523L9.94375 7.99185L9.51714 7.68204L9.09053 7.99185C9.04632 8.02396 8.99032 7.99552 8.98017 7.94921L8.98207 7.9118L9.14022 7.4039L8.71835 7.08742C8.67466 7.05462 8.68392 6.99174 8.72415 6.96763L8.75978 6.9579L9.28418 6.95375L9.45011 6.44837C9.46729 6.39607 9.52901 6.38561 9.56403 6.41699ZM12.1683 5.84204L12.3342 6.34742L12.8586 6.35156C12.9265 6.35209 12.9546 6.44009 12.9 6.48109L12.4781 6.79756L12.6363 7.30547C12.6568 7.37118 12.5831 7.42566 12.5278 7.38552L12.1012 7.07571L11.6746 7.38552C11.6194 7.42561 11.5457 7.37123 11.5661 7.30547L11.7243 6.79756L11.3024 6.48109C11.2478 6.44009 11.2759 6.35209 11.3439 6.35156L11.8683 6.34742L12.0342 5.84204C12.0556 5.77661 12.1468 5.77661 12.1683 5.84204Z" fill="#FFEB3B"/>
<path fill-rule="evenodd" clip-rule="evenodd" d="M22 5H2C1.44772 5 1 5.44772 1 6V18C1 18.5523 1.44772 19 2 19H22C22.5523 19 23 18.5523 23 18V6C23 5.44771 22.5523 5 22 5ZM2 4C0.895431 4 0 4.89543 0 6V18C0 19.1046 0.89543 20 2 20H22C23.1046 20 24 19.1046 24 18V6C24 4.89543 23.1046 4 22 4H2Z" fill="black" fill-opacity="0.04"/>
<mask id="mask0_12103_15738" style="mask-type:alpha" maskUnits="userSpaceOnUse" x="8" y="12" width="24" height="16">
<path d="M30 12H10C8.89543 12 8 12.8954 8 14V26C8 27.1046 8.89543 28 10 28H30C31.1046 28 32 27.1046 32 26V14C32 12.8954 31.1046 12 30 12Z" fill="white"/>
</mask>
<g mask="url(#mask0_12103_15738)">
<path d="M30 12H10C8.89543 12 8 12.8954 8 14V26C8 27.1046 8.89543 28 10 28H30C31.1046 28 32 27.1046 32 26V14C32 12.8954 31.1046 12 30 12Z" fill="#006AA7"/>
<path d="M32 18.5H18V12H15V18.5H8V21.5H15V28H18V21.5H32V18.5Z" fill="#FECC00"/>
<path fill-rule="evenodd" clip-rule="evenodd" d="M30 13H10C9.44772 13 9 13.4477 9 14V26C9 26.5523 9.44772 27 10 27H30C30.5523 27 31 26.5523 31 26V14C31 13.4477 30.5523 13 30 13ZM10 12C8.89543 12 8 12.8954 8 14V26C8 27.1046 8.89543 28 10 28H30C31.1046 28 32 27.1046 32 26V14C32 12.8954 31.1046 12 30 12H10Z" fill="black" fill-opacity="0.04"/>
</g>
</svg>

<svg width="32" height="32" fill="none" xmlns="http://www.w3.org/2000/svg"><path d="M22 4H2a2 2 0 0 0-2 2v12a2 2 0 0 0 2 2h20a2 2 0 0 0 2-2V6a2 2 0 0 0-2-2Z" fill="#0D47A1"/><path d="m12.168 16.693.166.505.525.004c.068 0 .096.089.041.13l-.422.316.158.508c.02.066-.053.12-.108.08l-.427-.31-.426.31c-.056.04-.13-.014-.109-.08l.158-.508-.422-.316c-.054-.041-.026-.13.042-.13l.524-.004.166-.505a.07.07 0 0 1 .134 0Zm-2.584-.848.166.506.524.004c.068 0 .097.088.042.13l-.422.316.158.508c.02.066-.053.12-.108.08l-.427-.31-.426.31c-.056.04-.13-.014-.109-.08l.158-.508-.422-.317c-.054-.04-.026-.129.042-.13l.524-.003.166-.506a.07.07 0 0 1 .134 0Zm5.207 0a.07.07 0 0 1 .134 0l.166.506.524.004c.068 0 .096.088.041.13l-.421.316.158.508c.02.066-.054.12-.109.08l-.426-.31-.427.31c-.055.04-.129-.014-.108-.08l.158-.508-.422-.317c-.055-.04-.027-.129.041-.13l.525-.003.166-.506Zm2.088-1.986.166.506.525.004c.068 0 .096.088.041.13l-.422.316.159.508c.02.066-.054.12-.109.08l-.427-.31-.426.31c-.055.04-.13-.014-.109-.08l.159-.508-.422-.316c-.055-.042-.027-.13.041-.13l.524-.004.166-.505a.07.07 0 0 1 .134 0Zm-9.27-.03.02.03.166.506.525.004c.054 0 .083.057.064.1l-.023.03-.422.316.158.508a.072.072 0 0 1-.074.093l-.034-.013-.427-.31-.426.31c-.044.032-.1.004-.11-.043l.001-.037.158-.508-.421-.316a.073.073 0 0 1 .005-.12l.036-.01.524-.004.166-.505a.07.07 0 0 1 .114-.032Zm9.9-2.562.166.506.524.004c.068 0 .096.088.041.13l-.421.316.158.508c.02.066-.053.12-.109.08l-.426-.31-.427.31c-.055.04-.129-.014-.108-.08l.158-.508-.422-.317c-.055-.04-.027-.129.041-.13l.525-.003.166-.506a.07.07 0 0 1 .134 0Zm-10.681 0 .166.506.524.004c.068 0 .096.088.041.13l-.421.316.158.508c.02.066-.053.12-.109.08l-.426-.31-.427.31c-.055.04-.129-.014-.108-.08l.158-.508-.422-.317c-.055-.04-.027-.129.041-.13l.525-.003.166-.506a.07.07 0 0 1 .134 0Zm.801-2.833.166.506.525.004c.068 0 .096.088.041.13l-.422.316.158.508c.021.065-.053.12-.108.08l-.427-.31-.426.31c-.055.04-.13-.015-.109-.08l.158-.508-.421-.317c-.055-.04-.027-.129.041-.13l.524-.003.166-.506a.07.07 0 0 1 .134 0Zm9.23-.031.02.031.166.506.525.004c.054 0 .083.057.064.1l-.023.03-.422.316.159.508a.072.072 0 0 1-.075.093l-.034-.013-.427-.31-.426.31c-.044.032-.1.003-.11-.043l.001-.037.159-.508-.422-.317a.073.073 0 0 1 .005-.12l.036-.01.524-.003.166-.506a.07.07 0 0 1 .114-.031Zm-1.934-1.955.166.506.524.004c.068 0 .096.088.041.13l-.421.316.158.508c.02.066-.053.12-.109.08l-.426-.31-.427.31c-.055.04-.129-.014-.108-.08l.158-.508-.422-.317c-.055-.04-.027-.129.041-.13l.525-.003.166-.506a.07.07 0 0 1 .134 0Zm-5.361-.031.02.031.166.506.524.004c.055 0 .084.057.065.1l-.023.03-.422.316.158.508a.072.072 0 0 1-.074.093l-.034-.013-.427-.31-.426.31c-.045.032-.1.004-.11-.043l.001-.037.158-.508-.422-.317a.073.073 0 0 1 .006-.12l.036-.01.524-.003.166-.506a.07.07 0 0 1 .114-.031Zm2.604-.575.166.505.525.005c.068 0 .096.088.041.13l-.422.316.158.507c.02.066-.053.12-.108.08l-.427-.31-.426.31c-.056.04-.13-.014-.109-.08l.158-.507-.422-.317c-.054-.04-.026-.129.042-.13l.524-.004.166-.505a.07.07 0 0 1 .134 0Z" fill="#FFEB3B"/><path fill-rule="evenodd" clip-rule="evenodd" d="M22 5H2a1 1 0 0 0-1 1v12a1 1 0 0 0 1 1h20a1 1 0 0 0 1-1V6a1 1 0 0 0-1-1ZM2 4a2 2 0 0 0-2 2v12a2 2 0 0 0 2 2h20a2 2 0 0 0 2-2V6a2 2 0 0 0-2-2H2Z" fill="#000" fill-opacity=".04"/><mask id="a" style="mask-type:alpha" maskUnits="userSpaceOnUse" x="8" y="12" width="24" height="16"><path d="M30 12H10a2 2 0 0 0-2 2v12a2 2 0 0 0 2 2h20a2 2 0 0 0 2-2V14a2 2 0 0 0-2-2Z" fill="#fff"/></mask><g mask="url(#a)"><path d="M30 12H10a2 2 0 0 0-2 2v12a2 2 0 0 0 2 2h20a2 2 0 0 0 2-2V14a2 2 0 0 0-2-2Z" fill="#006AA7"/><path d="M32 18.5H18V12h-3v6.5H8v3h7V28h3v-6.5h14v-3Z" fill="#FECC00"/><path fill-rule="evenodd" clip-rule="evenodd" d="M30 13H10a1 1 0 0 0-1 1v12a1 1 0 0 0 1 1h20a1 1 0 0 0 1-1V14a1 1 0 0 0-1-1Zm-20-1a2 2 0 0 0-2 2v12a2 2 0 0 0 2 2h20a2 2 0 0 0 2-2V14a2 2 0 0 0-2-2H10Z" fill="#000" fill-opacity=".04"/></g></svg>
